src/lib/packages/icons/src/assets/line/activity-star-square.svg

<svg width="24" height="24" viewBox="0 0 24 24" fill="none" xmlns="http://www.w3.org/2000/svg">
<path d="M12 21.75H5.38C2.717 21.75 1.25 20.2831 1.25 17.6201V6.37012C1.25 3.71312 2.717 2.25 5.38 2.25H16.62C19.283 2.25 20.75 3.71312 20.75 6.37012V12C20.75 12.414 20.414 12.75 20 12.75C19.586 12.75 19.25 12.414 19.25 12V6.37012C19.25 4.53412 18.463 3.75 16.62 3.75H5.38C3.537 3.75 2.75 4.53412 2.75 6.37012V17.6201C2.75 19.4631 3.537 20.25 5.38 20.25H12C12.414 20.25 12.75 20.586 12.75 21C12.75 21.414 12.414 21.75 12 21.75ZM21.081 22.521C21.438 22.259 21.612 21.8261 21.536 21.3911L21.282 19.9419L22.4 18.876C22.715 18.575 22.829 18.1301 22.696 17.7161C22.562 17.2991 22.208 17.0019 21.772 16.9399L20.214 16.718L19.545 15.3899C19.346 14.9939 18.946 14.749 18.501 14.749C18.056 14.749 17.656 14.9939 17.458 15.3889L16.788 16.717L15.23 16.939C14.794 17.001 14.439 17.2981 14.306 17.7151C14.173 18.1291 14.286 18.574 14.602 18.876L15.719 19.9409L15.466 21.3889C15.39 21.8239 15.564 22.257 15.921 22.519C16.282 22.785 16.754 22.8219 17.153 22.6169L18.502 21.9231L19.852 22.6169C20.023 22.7049 20.207 22.749 20.391 22.749C20.633 22.75 20.875 22.673 21.081 22.521ZM18.338 21.8411H18.339H18.338ZM18.664 21.8401L18.663 21.8411C18.663 21.8411 18.663 21.8411 18.664 21.8401ZM17.183 18.177C17.554 18.124 17.874 17.894 18.04 17.563L18.5 16.6509L18.959 17.561C19.126 17.894 19.447 18.123 19.817 18.176L20.811 18.3169L20.102 18.9939C19.83 19.2549 19.705 19.6319 19.769 20.0039L19.94 20.978L19.025 20.5071C18.695 20.3371 18.303 20.3371 17.975 20.5061L17.059 20.978L17.229 20.002C17.293 19.631 17.169 19.2539 16.896 18.9919L16.188 18.3169L17.183 18.177ZM21.561 18.425H21.571H21.561ZM6.53 14.53L9.321 11.739C9.419 11.641 9.577 11.641 9.675 11.739L11.264 13.324C11.946 14.005 13.056 14.005 13.738 13.323L16.531 10.53C16.824 10.237 16.824 9.76199 16.531 9.46899C16.238 9.17599 15.763 9.17599 15.47 9.46899L12.677 12.262C12.58 12.359 12.422 12.36 12.323 12.262L10.734 10.677C10.052 9.996 8.94199 9.99598 8.25999 10.678L5.46899 13.469C5.17599 13.762 5.17599 14.237 5.46899 14.53C5.61499 14.676 5.80699 14.75 5.99899 14.75C6.19099 14.75 6.384 14.677 6.53 14.53Z" fill="currentColor"/>
</svg>

<svg xmlns="http://www.w3.org/2000/svg" width="24" height="24" fill="none"><path fill="currentColor" d="M12 21.75H5.38c-2.663 0-4.13-1.467-4.13-4.13V6.37c0-2.657 1.467-4.12 4.13-4.12h11.24c2.663 0 4.13 1.463 4.13 4.12V12a.75.75 0 0 1-1.5 0V6.37c0-1.836-.787-2.62-2.63-2.62H5.38c-1.843 0-2.63.784-2.63 2.62v11.25c0 1.843.787 2.63 2.63 2.63H12a.75.75 0 0 1 0 1.5Zm9.081.771c.357-.262.531-.695.455-1.13l-.254-1.45 1.118-1.065a1.129 1.129 0 0 0-.628-1.936l-1.558-.222-.669-1.328a1.16 1.16 0 0 0-1.044-.641c-.445 0-.845.245-1.043.64l-.67 1.328-1.558.222c-.436.062-.791.36-.924.776a1.12 1.12 0 0 0 .296 1.161l1.117 1.065-.253 1.448c-.076.435.098.868.455 1.13.361.266.833.303 1.232.098l1.349-.694 1.35.694a1.153 1.153 0 0 0 1.229-.096Zm-2.743-.68h.001-.001Zm.326 0h-.001.001Zm-1.481-3.664c.371-.053.691-.283.857-.614l.46-.912.459.91c.167.333.488.562.858.615l.994.14-.709.678a1.132 1.132 0 0 0-.333 1.01l.171.974-.915-.47a1.15 1.15 0 0 0-1.05-.002l-.916.472.17-.976a1.131 1.131 0 0 0-.333-1.01l-.708-.675.995-.14Zm4.378.248h.01-.01ZM6.53 14.53l2.791-2.791a.25.25 0 0 1 .354 0l1.589 1.585a1.752 1.752 0 0 0 2.474-.001l2.793-2.793a.75.75 0 1 0-1.061-1.061l-2.793 2.793a.25.25 0 0 1-.354 0l-1.589-1.585a1.752 1.752 0 0 0-2.474.001l-2.791 2.791A.75.75 0 1 0 6.53 14.53Z"/></svg>
